src/assets/metronic/worbby/global/img/icon-sports.svg

<?xml version="1.0" encoding="UTF-8"?>
<svg width="65px" height="65px" viewBox="0 0 65 65" version="1.1" xmlns="http://www.w3.org/2000/svg" xmlns:xlink="http://www.w3.org/1999/xlink">
    <!-- Generator: Sketch 41.2 (35397) - http://www.bohemiancoding.com/sketch -->
    <title>icon-sports</title>
    <desc>Created with Sketch.</desc>
    <defs>
        <linearGradient x1="0%" y1="49.9979293%" x2="99.9874969%" y2="49.9979293%" id="linearGradient-1">
            <stop stop-color="#FFB247" offset="0%"></stop>
            <stop stop-color="#FFCB33" offset="100%"></stop>
        </linearGradient>
    </defs>
    <g id="Worbby-Needor" stroke="none" stroke-width="1" fill="none" fill-rule="evenodd">
        <g id="Categories-List" transform="translate(-185.000000, -650.000000)">
            <g id="icon-sports" transform="translate(185.000000, 650.000000)">
                <g>
                    <path d="M37.9166667,54.1666667 C52.87425,54.1666667 65,42.0409167 65,27.0833333 C65,12.12575 52.87425,0 37.9166667,0 C22.9590833,0 10.8333333,12.12575 10.8333333,27.0833333 C10.8333333,42.0409167 22.9590833,54.1666667 37.9166667,54.1666667" id="Fill-1" fill="url(#linearGradient-1)"></path>
                    <path d="M35.568,33.615075 C36.8539167,34.083075 38.2893333,33.4124917 38.75625,32.1276583 C39.22425,30.842825 38.55475,29.4074083 37.2699167,28.9404917 C35.9850833,28.4714083 34.5496667,29.1419917 34.0816667,30.426825 C33.6136667,31.7116583 34.2831667,33.147075 35.568,33.615075 L35.568,33.615075 Z M15.5100833,32.1352417 C15.1406667,33.1514083 15.6704167,34.2867417 16.6855,34.6561583 C17.7016667,35.0266583 18.837,34.4969083 19.2064167,33.4807417 C19.5769167,32.464575 19.0428333,31.3422417 18.0266667,30.972825 C17.0115833,30.6034083 15.8925,31.1244917 15.5100833,32.1352417 L15.5100833,32.1352417 Z M12.194,30.9284083 C13.2275,28.0889917 16.3821667,26.617825 19.2335,27.6567417 C22.0859167,28.694575 23.5570833,31.8492417 22.5235833,34.6886583 C21.4846667,37.5399917 18.33,39.0111583 15.4786667,37.973325 C12.63925,36.939825 11.1680833,33.7851583 12.194,30.9284083 L12.194,30.9284083 Z M60.9136667,54.649075 C62.3924167,50.5854917 60.9396667,48.2552417 57.967,46.0636583 C56.5055833,47.070075 53.6921667,49.3179917 52.0043333,52.4314917 L60.5225833,55.5319917 C60.6699167,55.2394917 60.7945,54.938325 60.9136667,54.649075 L60.9136667,54.649075 Z M59.0135,58.724575 L4.86958333,39.0176583 L4.04083333,41.294825 L58.1479167,60.9876583 L59.0135,58.724575 Z M8.63525,28.483325 C7.73608333,30.914325 7.20958333,33.4666583 7.06008333,36.0872417 L48.6340833,51.2192417 C50.3165,47.853325 53.014,45.3562417 54.91525,43.9002417 C51.59375,41.3739083 46.7285,37.108825 39.90675,30.758325 C37.8375833,28.827825 36.4530833,26.8409917 35.2495,25.0859917 C33.6591667,22.7882417 32.5184167,21.1264083 30.4741667,20.3821583 C29.9606667,20.1947417 28.7386667,19.8199083 28.5068333,20.455825 C28.44075,20.6389083 28.6964167,21.3842417 28.8535,21.8294917 C29.2543333,22.9734917 29.8046667,24.5454083 29.1806667,26.2592417 C28.49925,28.1312417 26.2545833,29.4626583 22.7911667,28.2016583 C18.3245833,26.5766583 13.99775,23.8791583 11.8570833,22.448075 C10.9969167,23.6321583 9.68391667,25.6764083 8.63525,28.483325 L8.63525,28.483325 Z M64.2091667,55.8342417 C63.8711667,56.764825 63.4356667,57.6184917 62.9026667,58.435325 L60.814,63.8704083 C60.45975,64.7674083 59.4630833,65.2224083 58.5563333,64.893075 L1.157,44.0009917 C0.251333333,43.6716583 -0.2275,42.6652417 0.106166667,41.7476583 L2.14283333,36.1544083 C2.37791667,35.5054917 2.9575,35.0927417 3.5945,35.0201583 C3.81983333,32.344325 4.39833333,29.7269917 5.32458333,27.222325 C7.28541667,21.9486583 10.1313333,18.9651583 10.2450833,18.840575 C10.86475,18.206825 11.8516667,18.122325 12.5623333,18.6444917 C12.6316667,18.6834917 18.32025,22.818575 24.011,24.8899083 C25.2828333,25.353575 25.8255833,25.1206583 25.8765,25.0567417 C26.05525,24.567075 25.8656667,23.9441583 25.5330833,22.990825 C25.17125,21.9302417 24.7086667,20.611825 25.2080833,19.240325 C25.87975,17.3932417 27.9781667,15.7032417 31.6983333,17.0574083 C34.7955833,18.184075 36.43575,20.569575 38.17125,23.0731583 C39.3325833,24.7566583 40.5296667,26.4954083 42.3345,28.1637417 C50.5071667,35.753575 55.9530833,40.4389917 58.9885833,42.458325 C61.2094167,43.9316583 67.12225,47.8717417 64.2091667,55.8342417 L64.2091667,55.8342417 Z M47.8226667,45.337825 C49.1075,45.805825 50.5429167,45.136325 51.0109167,43.8514917 C51.4789167,42.565575 50.8094167,41.1301583 49.5235,40.6621583 C48.2386667,40.1952417 46.80325,40.8636583 46.33525,42.149575 C45.8683333,43.4344083 46.53675,44.869825 47.8226667,45.337825 L47.8226667,45.337825 Z M39.5936667,37.6721583 C40.8785,38.1401583 42.315,37.4706583 42.7819167,36.185825 C43.2499167,34.8999083 42.5804167,33.4644917 41.2955833,32.9964917 C40.01075,32.529575 38.57425,33.199075 38.1073333,34.4839083 C37.6469167,35.7849917 38.3088333,37.2041583 39.5936667,37.6721583 L39.5936667,37.6721583 Z M42.2391667,38.2874917 C42.7060833,37.0026583 44.1425833,36.3331583 45.4274167,36.8011583 C46.7241667,37.2734917 47.38175,38.704575 46.91375,39.9894083 C46.4468333,41.275325 45.0103333,41.9437417 43.7255,41.476825 C42.42875,41.0044917 41.7668333,39.585325 42.2391667,38.2874917 L42.2391667,38.2874917 Z" id="Fill-3" fill="#1E2225"></path>
                </g>
            </g>
        </g>
    </g>
</svg>

<svg xmlns="http://www.w3.org/2000/svg" width="65" height="65"><defs><linearGradient id="a" x1="0%" x2="99.9875%" y1="49.9979%" y2="49.9979%"><stop stop-color="#FFB247" offset="0%"/><stop stop-color="#FFCB33" offset="100%"/></linearGradient></defs><g fill="none" fill-rule="evenodd"><path fill="url(#a)" d="M37.9167 54.1667C52.8743 54.1667 65 42.041 65 27.0833 65 12.1257 52.8743 0 37.9167 0 22.959 0 10.8333 12.1258 10.8333 27.0833c0 14.9576 12.1258 27.0834 27.0834 27.0834"/><path fill="#1E2225" d="M35.568 33.615c1.286.468 2.7213-.2025 3.1883-1.4873.468-1.285-.2016-2.7203-1.4864-3.1872-1.285-.469-2.7203.2015-3.1883 1.4863-.468 1.285.2015 2.7203 1.4863 3.1883zM15.51 32.1353c-.3693 1.0162.1604 2.1515 1.1755 2.521 1.0162.3705 2.1515-.1593 2.521-1.1755.3704-1.016-.1637-2.1385-1.1798-2.508-1.015-.3693-2.1342.1518-2.5166 1.1625zm-3.316-1.2068c1.0335-2.8394 4.1882-4.3106 7.0395-3.2717 2.8524 1.038 4.3236 4.1925 3.29 7.032-1.0388 2.8513-4.1935 4.3225-7.0448 3.2846-2.8394-1.0335-4.3106-4.188-3.2847-7.045zM60.9137 54.649c1.4787-4.0635.026-6.3938-2.9467-8.5853-1.4614 1.0064-4.2748 3.2543-5.9627 6.3678l8.5183 3.1005c.1473-.2925.272-.5937.391-.883zm-1.9002 4.0756l-54.144-19.707-.8287 2.2772 54.107 19.693.8657-2.2632zM8.6352 28.4833c-.899 2.431-1.4256 4.9834-1.575 7.604l41.574 15.132c1.6823-3.366 4.3798-5.863 6.281-7.319-3.3214-2.5264-8.1867-6.7915-15.0084-13.142-2.0692-1.9305-3.4537-3.9173-4.6573-5.6723-1.5903-2.2978-2.731-3.9596-4.7753-4.7038-.5135-.1875-1.7355-.5623-1.9674.0736-.066.183.1896.9284.3467 1.3737.4008 1.144.9512 2.716.3272 4.4297-.6815 1.872-2.926 3.2035-6.3895 1.9425-4.4666-1.625-8.7934-4.3225-10.934-5.7536-.8603 1.1842-2.1733 3.2284-3.222 6.0353zm55.574 27.351c-.338.9305-.7735 1.7842-1.3065 2.601l-2.0887 5.435c-.3543.897-1.351 1.352-2.2577 1.0228L1.157 44.001c-.9057-.3293-1.3845-1.3358-1.0508-2.2533l2.0366-5.5933c.235-.649.8147-1.0617 1.4517-1.1342.2253-2.676.8038-5.2932 1.73-7.798 1.961-5.2735 4.8068-8.257 4.9206-8.3816.6198-.6338 1.6067-.7183 2.3173-.196.0694.039 5.758 4.174 11.4487 6.2453 1.2718.4636 1.8146.2307 1.8655.1667.1788-.4896-.0108-1.1125-.3434-2.066-.3618-1.0605-.8243-2.379-.325-3.7504.6718-1.847 2.7702-3.537 6.4903-2.183 3.0973 1.1268 4.7374 3.5123 6.473 6.016 1.1613 1.6834 2.3584 3.422 4.1632 5.0904 8.1727 7.59 13.6186 12.2753 16.654 14.2946 2.221 1.4734 8.1337 5.4134 5.2207 13.376zM47.8227 45.3377c1.2848.468 2.7202-.2015 3.1882-1.4863.468-1.286-.2016-2.7213-1.4875-3.1893-1.2848-.467-2.7203.2015-3.1882 1.4874-.467 1.2848.2015 2.7202 1.4874 3.1882zm-8.229-7.6656c1.2848.468 2.7213-.2015 3.1882-1.4864.468-1.286-.2016-2.7213-1.4864-3.1893-1.2848-.467-2.7214.2026-3.1883 1.4874-.4604 1.301.2015 2.7202 1.4864 3.1882zm2.6455.6153c.467-1.2848 1.9034-1.9543 3.1882-1.4863 1.2968.4723 1.9543 1.9034 1.4864 3.1882-.467 1.286-1.9035 1.9543-3.1883 1.4874-1.2967-.4723-1.9587-1.8915-1.4863-3.1893z"/></g></svg>
